X:1
T:Title
%%score { ( 1 3 ) | 2 }
L:1/8
M:3/4
K:Ab
V:1 treble nm="Grand Piano"
V:3 treble 
V:2 bass 
V:1
 z2 z2[Q:1/4=100] [A,CE]>[A,CE] | [CEA]3 [B,EG] [CEA]>[DEB] | [EAc]2 [EAc]2 [Ec]>[EB] | %3
 [FA]3 [FB] [FA]>[DF] |[M:2/4] [CE]4 |[M:1/4] E>E |[M:3/4] B3 =A B>c | B2 A2 c>d | e3 c d>c | %9
[M:2/4] B4 |[M:1/4] c>d |[M:3/4] e3 c c>B | [CEA]2 [A,CE]2 [A,_GA]>[A,GA] | [Fd]3 [Fd] [Fd]>[Fd] | %14
[M:2/4] [Ec]4 |[M:1/4] c>d |[M:3/4] e3 [Ec] [EB]>[EA] | [DB]2 [DA]2 [EA]>[FB] | c3 A B>B | %19
[M:2/4] [A,CA]4 |[M:1/4] (3ABc |[M:3/4] (3[EG-B-][EG-B-][EG-B-] [GB]2 (3Bcd | %22
 (3[EA-c-][EA-c-][EA-c-] [Ac]2 c>d | e3 c B>A |[M:2/4] B4 |[M:1/4] c>d |[M:3/4] e3 [Ec] [EB]>[EA] | %27
 [DB]2 [DA]2 [EA]>[FB] | c3 A B>B |[M:6/4] .[CA]6 z6 |] %30
V:2
 z2 z2 A,,>A,, | A,,3 A,, A,,>A,, | A,2 A,2 [A,,A,]>[C,A,] | [D,D]3 [D,D] [D,D]>[D,A,] | %4
[M:2/4] [A,,A,]4 |[M:1/4] [A,C]>[A,C] |[M:3/4] [E,DE]3 [E,CE] [E,DE]>[E,E] | %7
 [A,DE]2 [A,CE]2 [A,E]>[B,E] | [CA]3[K:bass] [A,E] [G,B,E]>[A,E] |[M:2/4] [E,G,E]4 | %10
[M:1/4] [A,E]>[K:treble][A,B,E] |[M:3/4] [A,CA]3 [A,EA] [B,EA]>[A,DE] | A,,2 A,,2 C,>C, | %13
 [D,A,]3 [D,A,] [D,A,]>[D,A,] |[M:2/4] [A,,A,]4 |[M:1/4][K:treble] [A,E]>[A,B,E] | %16
[M:3/4] [A,CA]3[K:bass] [A,,A,] [B,,G,]>[C,A,] | [D,F,]2 [D,F,]2 [C,A,]>[D,A,] | %18
 [E,A,E]3 [E,A,C] [E,G,D]>[E,G,D] |[M:2/4] A,,4 |[M:1/4][K:treble] (3CEA | %21
[M:3/4][K:bass] (3E,E,E, E,2[K:treble] (3GAB | (3A,A,A, A,2 [A,EA]>[A,DA] | %23
 [A,CA]3[K:bass] [A,E] [G,B,E]>[F,B,=D] |[M:2/4] [E,G,E]4 |[M:1/4] [A,E]>[K:treble][A,B,E] | %26
[M:3/4] [A,CA]3[K:bass] [A,,A,] [B,,G,]>[C,A,] | [D,F,]2 [D,F,]2 [C,A,]>[D,A,] | %28
 [E,A,E]3 [E,A,C] [E,G,D]>[E,G,D] |[M:6/4] .[A,,A,]6 z6 |] %30
V:3
 x6 | x6 | x6 | x6 |[M:2/4] x4 |[M:1/4] x2 |[M:3/4] x6 | x6 | x6 |[M:2/4] x4 |[M:1/4] x2 | %11
[M:3/4] x6 | x6 | x6 |[M:2/4] x4 |[M:1/4] x2 |[M:3/4] x6 | x6 | x6 |[M:2/4] x4 |[M:1/4] x2 | %21
[M:3/4] z2 E2 z2 | z2 E2 z2 | x6 |[M:2/4] x4 |[M:1/4] x2 |[M:3/4] x6 | x6 | x6 |[M:6/4] x12 |] %30

